X:1
T: The Catholic Boy
C:
R:Jig
Q:180
K:G
M:6/8
L:1/16
|:D2|D2G2G2 G2F2G2|D2B2B2 c2B2c2|d2e2d2 c2B2A2|B2G2E2 =F4E2|
D2G2G2 G2F2G2|D2B2B2 c2B2c2|d2e2d2 c2B2A2|B2G2G2 G4:|
|:(3def|g2d2B2 g2B2g2|g2d2c2 B2A2G2|=F2=f2f2 f2e2f2|A2=F2A2 c2_B2A2|
G2g2g2 g2=f2e2|d3cde =f2d2c2|(3_BcdB2 c2B2A2|_B2G2G2 G4:|
